X:56
T:Rights of Man
N:page 19
N: hexatonic
N: matches 203
R: Hornpipe
% Nottingham Music Database
S:Fiddler's Fakebook, via PR
M:4/4
L:1/8
K:Emin
GA|(3"Em"BcB (3ABA (3GAG (3FGF|EFGA B2ef|\
gfed edBd|cBAG "Am"A2GA|\
(3"Em"BcB (3ABA (3GAG (3FGF|
EFGA B2ef|gfed Bg fg|e2E2 E2::\
ga|"Em"babg efga|babg egfe|\
"D"d^cde fefg|
afdf a2gf| "Em"edef gfga|\
"D"(3bag (3agf "Em"gfef|\
gfed Bg fg|"Em"e2E2 E2:|



